svgs/sharp-light/train.svg

<svg xmlns="http://www.w3.org/2000/svg" viewBox="0 0 448 512"><!--! Font Awesome Pro 6.6.0 by @fontawesome - https://fontawesome.com License - https://fontawesome.com/license (Commercial License) Copyright 2024 Fonticons, Inc. --><path d="M32 32l384 0 0 192L32 224 32 32zm0 224l384 0 0 160-73.4 0-6.6 0-224 0-6.6 0L32 416l0-160zM374.6 448l41.4 0 32 0 0-32 0-384 0-32L416 0 32 0 0 0 0 32 0 416l0 32 32 0 41.4 0L20.7 500.7 9.4 512l45.3 0 64-64 210.7 0 64 64 45.3 0-11.3-11.3L374.6 448zM256 336a32 32 0 1 0 -64 0 32 32 0 1 0 64 0z"/></svg>

<svg xmlns="http://www.w3.org/2000/svg" viewBox="0 0 448 512"><!--! Font Awesome Pro 6.4.2 by @fontawesome - https://fontawesome.com License - https://fontawesome.com/license (Commercial License) Copyright 2023 Fonticons, Inc. --><path d="M32 32H416V224H32V32zm0 224H416V416H342.6 336 112h-6.6H32V256zM374.6 448H416h32V416 32 0H416 32 0V32 416v32H32 73.4L20.7 500.7 9.4 512H54.6l64-64H329.4l64 64h45.3l-11.3-11.3L374.6 448zM256 336a32 32 0 1 0 -64 0 32 32 0 1 0 64 0z"/></svg>
